img/print.svg

<svg fill="#aaaaaa" xmlns="http://www.w3.org/2000/svg" viewBox="0 0 512 512"><path d="M448 192V77.25c0-8.49-3.37-16.62-9.37-22.63L393.37 9.37c-6-6-14.14-9.37-22.63-9.37H96C78.33 0 64 14.33 64 32v160c-35.35 0-64 28.65-64 64v112c0 8.84 7.16 16 16 16h48v96c0 17.67 14.33 32 32 32h320c17.67 0 32-14.33 32-32v-96h48c8.84 0 16-7.16 16-16V256c0-35.35-28.65-64-64-64zm-64 256H128v-96h256v96zm0-224H128V64h192v48c0 8.84 7.16 16 16 16h48v96zm48 72c-13.25 0-24-10.75-24-24 0-13.26 10.75-24 24-24s24 10.74 24 24c0 13.25-10.75 24-24 24z"/></svg>

<svg width="512" height="512" viewBox="0 0 512 512" fill="none" xmlns="http://www.w3.org/2000/svg">
<g clip-path="url(#clip0_519_10)">
<path d="M448 192V77.25C448 68.76 444.63 60.63 438.63 54.62L393.37 9.37C387.37 3.37 379.23 0 370.74 0H96C78.33 0 64 14.33 64 32V192C28.65 192 0 220.65 0 256V368C0 376.84 7.16 384 16 384H64V480C64 497.67 78.33 512 96 512H416C433.67 512 448 497.67 448 480V384H496C504.84 384 512 376.84 512 368V256C512 220.65 483.35 192 448 192ZM384 448H128V352H384V448ZM384 224H128V64H320V112C320 120.84 327.16 128 336 128H384V224ZM432 296C418.75 296 408 285.25 408 272C408 258.74 418.75 248 432 248C445.25 248 456 258.74 456 272C456 285.25 445.25 296 432 296Z" fill="#AAAAAA"/>
</g>
<defs>
<clipPath id="clip0_519_10">
<rect width="512" height="512" fill="white"/>
</clipPath>
</defs>
</svg>
